X:1
T: Miss Elizabeth Ferguson's Favourite
C:
R:Jig
Q:128
K:A
M:6/8
L:1/16
cd|e4c2 f4d2|e4c2 a4g2|a4e2 c4A2|G2B2B2 B4cd|e4c2 f4d2|e4c2 a4g2|e2a2c2 B2G2E2|A2A2A2 A4cd|
e4c2 f4d2|e4c2 a4g2|a4e2 c4A2|G2B2B2 B4cd|e4c2 f4d2|e4c2 a4g2|e2a2c2 B2G2E2|A2A2A2 A4cB|
A4E2 C4A,2|F4D2 B,4F2|G2B2B2 B4cB|A2c2c2 c4B2|A2G2F2 E2D2C2|E2A2G2 A4E2|F2B2A2 G2F2E2|A2A2A2 A4cB|
A4E2 C4A,2|F4D2 B,4F2|G2B2B2 B4cB|A2c2c2 c4d2|e2c2f2 d2B2f2|e2a2g2 a2c2A2|F2d2f2 e2E2G2|A2A2A2 A4||
